X:460
T:Bean Setting
O:england
M:12/16
C:
S:Bacon (MDT)
N:
A:Headington
R:Jig
%P:A/2.(AB)$^4$
P:A.(AB)4
L:1/16
K:G
Q:1/8=160
P:A
|: G3 G2A B3 B3 | A2B cBA G2A B3 | G3 G2A B3 B3 | A2B cBA G6 :|\
M:6/8
Q:C3=96
P:B
|: B>AG B>AG | B<dd-d2 B | A>BA A2 B | c2 d e>dc | B>AG B<dB |\
M:9/8
A>Bc def g3 :|


